X:1
T:The Anchor Holds
T:The Anchor Holds
T:Lawrence Chewning & Ray Boltz, 1994
C:Lawrence Chewning & Ray Boltz 1994
Z:All Rights Reserved
L:1/8
Q:1/4=72
M:4/4
K:G
V:1 treble nm="Voice"
%%MIDI program 54
V:1
"^Gospel Feel""G2" z8 |"C2/G" z8 |"G2" z8 |"C2/G" z8 |:"G2" z4 z B2 A |"C2/G" !tenuto!AG !^!E2 z4 | %6
w: ||||I have|_ jour neyed|
"G2" z2 z B/B/ B3 A- |"C2/G" A G3 z4 |"G2" z4"D/F#" z2 Bc- |"Em7" B3 B/A/ A G3 |"D" A8 |"D7" z8 | %12
w: through the long dark|_ night|out on|_ the _ o pen|sea||
"Am" z3 D c-B-"G" B->G |"D/F#" A4"D7" z4 |"G" z2 c"D/F#"B A2 AG- |"Em" G4 |"C" z4 GABB- | %17
w: by faith _ _ a|lone|sight _ _ un known|_|and yet His eyes|
"D" A4 z3/2 D/ FF |"G" G8 |"C/D" z2 z D B2 A2 |"G" G4 z4 |"G" z2 z B/B/ B3 G- | %22
w: _ were watch iing|me|the an chor|holds|though the ship is|
"C" GG/E/- E2 z2"F/C" z2 |"C" z2 z c c2 Bc/-B/- |"D" A8 |"D" z2 z G/E/ B4- | %26
w: battered _ _ _|the anchor holds _ _|_|though the sails|
"G" BG G-<A- B2"C/G" z2 |"G" z4 z2"Am/G" Bc |"G" dd- d2-"Gmaj7" d e2 d |"G7" dG/A/ B2 z2 z E/G/ | %30
w: _ are torn _ _|I have|fal len _ _ on my|knees _ _ _ as I|
"C" A4"G/B" z z/ G/ AG |"Am" E/(D/ E3) z z/ E/ GA |"D/F#" A4 z2"Em" z2 |"D" z2 z D B3 G/-E/ |1 %34
w: face the rag ing|seas _ _ the an chor|holds|in spite of the|
"G" G8 | z z z z z z"D/F#" z z :|2"G" G6-"C/G" G2 ||"G" z4 z2"G/B" z2 ||!f!"C" z4 eee"F/C"e- | %39
w: storm||storm _||I have been young|
 e6 z2 |"G" z/ G/ e3 e2"C/G" dG/-A/- |"G" B6"C/G" z"G" z |"Em7" z2 z B BBB"D/E"B | %43
w: _|but I'm old er now _|_|and there has been beau|
"Em" B2 z"D/E" z"Em" z BBB |"D" B-A- A4-"G/D" A2 |"D7" z8 |"C" z z/ G/ ee e2 e"F/C"e- |"C" e6 z2 | %48
w: ty these eyes have|seen _ _ _||but it was in the night|_|
"G" z e2 d"D/F#" e2- (3edd- |"Em" dB/(A/ G4) z2 |"C" z3 G GGGG |"Am" z4 c d2-"Am/C" d- | %52
w: through the storm _ of my|_ life _ _|Oh, that's where God proved|His love _|
"D" d>B B<A- A2!>(! z2!>)! | z2 z D/D/"Bm/D" B2"D7" A2 ||"G" G2 z4"C/G" z2 |"G" z2 z B/B/ B3 G- | %56
w: _ to me _ _|but the an chor|holds|though the shop's been|
"C" GG/E/- E2 z2"F/C" z2 |"C" z2 z c c2 Bc/-B/- | A4 z2"Em/D" z2 |"D" z2 z G/E/ B3 G | %60
w: _ bat tered _|tha an chor holds _|_|though the sails are|
"G" G/A/ B3"Am7/G" z4 |"G" z4 B2"Am7/G" c2 |"G" dd- d2-"Gmaj7" d e3- | %63
w: torn _ _|I have|fal len _ _ on|
"G7" ee/d/ (3e(gb- b)a z G/G/ |"C" B- A3"G/B" z G/B/- BG/A/- |"Am7" A2"C/B" z2 z z/ E/ GA | %66
w: _ _ my knees _ _ _ _ as I|face _ the rag _ ing seas|_ tha an chor|
"D/F#" A6"C/E" z2 |"D" z2 z D A3 G/E/ |"G" G8 | z4"C/D" e2 e2 |"G" ed-"Gmaj7" d2- d e2 d- | %71
w: holds|in spite of the|storm|I have|fal len _ _ on my|
"G7" dG/-A/- B2 z2 z E/G/ |"C" A2 z2"G/B" z G/B/- BG |"Am7" A->G- E2 z z/ E/ GA |"D/F#" A8 | %75
w: _ knees _ _ as I|face the rag _ ing|sea _ _ the an chor|holds|
"D" z2 z D B3 G/E/ |"^rit.""C" G8- |"Am" G2-"G/B" G2"C" z2"G" z2 |] %78
w: in spite of the|storm|_ _|

